icons/desktop/12/svg/hammer-12.svg

<svg width="12" height="12" viewBox="0 0 12 12" fill="none" xmlns="http://www.w3.org/2000/svg">
<g clip-path="url(#clip0_8069_32475)">
<path fill-rule="evenodd" clip-rule="evenodd" d="M4.64758 0.5C5.57057 0.503 6.50301 0.544978 7.422 0.625977C7.959 0.673977 8.45925 0.926937 8.82825 1.33594L8.93665 1.45703H10.0626V1.3125C10.0626 0.967444 10.3426 0.687698 10.6876 0.6875C11.0328 0.6875 11.3126 0.967322 11.3126 1.3125V5.43848C11.3124 5.78343 11.0326 6.06348 10.6876 6.06348C10.3428 6.06328 10.0629 5.78331 10.0626 5.43848V5.22363H9.05872L8.21692 5.71875C8.16294 5.75074 8.10409 5.77508 8.04211 5.78809C8.0276 5.79149 8.01271 5.79356 7.99817 5.79688L7.9884 10.1963C7.98525 11.1912 7.17469 12 6.18079 12H5.82141C4.8275 12 4.01596 11.1911 4.01282 10.1973L4.00012 5.61816L3.32825 5.22461H1.17102C0.826021 5.22461 0.546021 4.94461 0.546021 4.59961V3.47168C0.546186 1.87683 1.78544 0.58248 3.36633 0.521484C3.7821 0.506497 4.20485 0.500004 4.64758 0.5ZM5.26282 10.1934C5.26301 10.5002 5.51453 10.75 5.82141 10.75H6.18079C6.48667 10.75 6.73721 10.5002 6.7384 10.1934L6.74719 5.97852C6.56234 5.99088 6.37641 5.99902 6.19055 5.99902L6.19446 6H6.13586C5.84055 5.99753 5.5451 5.9784 5.2511 5.94434L5.26282 10.1934ZM3.41125 1.77148C2.50535 1.80548 1.7952 2.55084 1.79504 3.4707V3.97363H3.49719C3.60796 3.97366 3.7168 4.0028 3.81165 4.05859L4.7218 4.59082C5.18969 4.6928 5.66779 4.745 6.14368 4.74902C6.63868 4.74402 7.17207 4.6998 7.66907 4.5918L8.57336 4.05957C8.66919 4.00278 8.77804 3.97367 8.88879 3.97363H10.0626V2.70703H8.6593C8.48239 2.70703 8.31343 2.63186 8.19543 2.50098L7.89954 2.17383C7.74157 1.99803 7.53253 1.89208 7.31067 1.87109C6.42778 1.79411 5.53056 1.753 4.64368 1.75C4.22387 1.75599 3.81008 1.7575 3.41125 1.77148Z" fill="black"/>
</g>
<defs>
<clipPath id="clip0_8069_32475">
<rect width="12" height="12" fill="white"/>
</clipPath>
</defs>
</svg>

<!-- This Source Code Form is subject to the terms of the Mozilla Public
   - License, v. 2.0. If a copy of the MPL was not distributed with this
   - file, You can obtain one at http://mozilla.org/MPL/2.0/. -->
<svg xmlns="http://www.w3.org/2000/svg" width="12" height="12" fill="context-fill" fill-opacity="context-fill-opacity" viewBox="0 0 12 12">
    <g clip-path="url(#clip0_8069_32475)">
        <path fill-rule="evenodd" d="M4.648.5c.923.003 1.855.045 2.774.126a2.15 2.15 0 0 1 1.406.71l.109.121h1.126v-.145a.625.625 0 0 1 1.25 0v4.126a.625.625 0 0 1-1.25 0v-.214H9.059l-.842.495a.6.6 0 0 1-.175.07l-.044.008-.01 4.4A1.81 1.81 0 0 1 6.181 12h-.36a1.81 1.81 0 0 1-1.808-1.803L4 5.618l-.672-.393H1.171A.625.625 0 0 1 .546 4.6V3.472c0-1.595 1.24-2.89 2.82-2.95C3.782.505 4.205.5 4.648.5m.615 9.693a.56.56 0 0 0 .558.557h.36a.56.56 0 0 0 .557-.557l.01-4.214a8 8 0 0 1-.557.02L6.194 6h-.058a8 8 0 0 1-.885-.056zM3.41 1.771a1.685 1.685 0 0 0-1.616 1.7v.503h1.702c.111 0 .22.029.315.085l.91.532c.468.102.946.154 1.422.158a7.7 7.7 0 0 0 1.525-.157l.904-.532a.6.6 0 0 1 .316-.086h1.174V2.707H8.659a.63.63 0 0 1-.464-.206L7.9 2.174a.9.9 0 0 0-.59-.303 32 32 0 0 0-2.666-.121c-.42.006-.834.008-1.233.021" clip-rule="evenodd" />
    </g>
</svg>
